X: 471
T: A Welcome Christmas Morning
R: waltz
M: 3/4
K: Amajor
E2|A,6|C4 E2|c4 B2|A6|A6|c4 B2|A4 E2|F2 E4|
C4 C2|C4 A,2|E4 F2|E6|F2 FF B2|B4 c2|B6-|B4 E2|
A,6|C4 E2|c4 B2|A6|A6|c4 B2|A4 E2|F2 E4|
F6|A4 d2|c4 B2|A6|G4 E2|F4 G2|A6-|A4||

